vendor/shopware/storefront/Resources/app/storefront/dist/assets/icon/default/eye-open.svg

<svg xmlns="http://www.w3.org/2000/svg" width="24" height="24" viewBox="0 0 24 24">
  <path fill="#758CA3" fill-rule="evenodd" d="M12.0010748,20 C7.70175454,20 3.8270473,17.7041803 0.411938248,13.2100652 C-0.131559034,12.4948495 -0.131542772,11.5050162 0.411966855,10.7898972 C3.82706885,6.2958069 7.70176661,4 12.0010748,4 C16.300395,4 20.1751022,6.29581969 23.5902113,10.7899348 C24.1337086,11.5051505 24.1336923,12.4949838 23.5901827,13.2101028 C20.1750807,17.7041931 16.3003829,20 12.0010748,20 Z M12.0010748,18 C15.6128855,18 18.9334618,16.032517 21.9978339,11.9999684 C18.9334811,7.96749439 15.6128959,6 12.0010748,6 C8.389264,6 5.06868776,7.96748297 2.00431567,12.0000316 C5.06866845,16.0325056 8.38925361,18 12.0010748,18 Z M12,16 C9.790861,16 8,14.209139 8,12 C8,9.790861 9.790861,8 12,8 C14.209139,8 16,9.790861 16,12 C16,14.209139 14.209139,16 12,16 Z M12,14 C13.1045695,14 14,13.1045695 14,12 C14,10.8954305 13.1045695,10 12,10 C10.8954305,10 10,10.8954305 10,12 C10,13.1045695 10.8954305,14 12,14 Z"/>
</svg>

<svg xmlns="http://www.w3.org/2000/svg" width="24" height="24" viewBox="0 0 24 24"><path fill="#758CA3" fill-rule="evenodd" d="M12.001 20C7.7019 20 3.827 17.7042.412 13.21a2 2 0 0 1 0-2.4201C3.827 6.2959 7.7018 4 12.001 4c4.2994 0 8.1741 2.2958 11.5892 6.79a2 2 0 0 1 0 2.4201C20.175 17.7041 16.3004 20 12.001 20zm0-2c3.6119 0 6.9325-1.9675 9.9968-6-3.0643-4.0325-6.3849-6-9.9967-6-3.6118 0-6.9324 1.9675-9.9968 6 3.0644 4.0325 6.385 6 9.9968 6zM12 16c-2.2091 0-4-1.7909-4-4 0-2.2091 1.7909-4 4-4 2.2091 0 4 1.7909 4 4 0 2.2091-1.7909 4-4 4zm0-2c1.1046 0 2-.8954 2-2s-.8954-2-2-2-2 .8954-2 2 .8954 2 2 2z"/></svg>
